img/logo-1-white-xs.svg

<svg xmlns="http://www.w3.org/2000/svg" viewBox="0 0 2370.71 1305.58" data-guides="{&quot;vertical&quot;:[],&quot;horizontal&quot;:[]}"><defs/><path fill="rgb(255, 255, 255)" stroke="none" fill-opacity="1" stroke-width="1" stroke-opacity="1" clip-rule="evenodd" text-rendering="geometricprecision" class="fil0" id="tSvg14400fa2455" title="Path 1" d="M1351.8515 881.2545C1354.6615 927.0709 1357.4715 972.8872 1360.2814 1018.7036C1357.4715 1018.7036 1354.6615 1018.7036 1351.8515 1018.7036C1340.5116 977.5739 1324.3917 947.8441 1303.4018 929.8242C1282.4119 911.7043 1257.3021 902.6444 1227.8823 902.6444C1203.3325 902.6444 1181.0326 909.4643 1161.1727 923.1042C1141.3129 936.7541 1125.663 958.434 1114.223 988.3738C1102.8831 1018.1936 1097.1731 1055.3634 1097.1731 1099.7431C1097.1731 1136.3928 1102.5131 1168.1626 1113.293 1195.0325C1124.073 1221.9123 1140.2829 1242.4722 1161.8327 1256.8321C1183.4826 1271.192 1208.1224 1278.3219 1235.7522 1278.3219C1259.8421 1278.3219 1281.1119 1272.712 1299.4718 1261.522C1317.9317 1250.3221 1338.1716 1228.0222 1360.1914 1194.6325C1363.0348 1196.6691 1365.8781 1198.7058 1368.7214 1200.7424C1350.0715 1236.6822 1328.3316 1262.942 1303.5018 1279.6419C1278.672 1296.2318 1249.1622 1304.5818 1215.0524 1304.5818C1153.4928 1304.5818 1105.7931 1279.7419 1072.0633 1229.9622C1046.8535 1192.9025 1034.2035 1149.3328 1034.2035 1099.2431C1034.2035 1058.8333 1042.5435 1021.6636 1059.1334 987.8638C1075.7133 953.964 1098.5831 927.8042 1127.6229 909.1643C1156.7628 890.5444 1188.5325 881.2645 1223.0123 881.2645C1249.8122 881.2645 1276.232 888.3944 1302.3718 902.7543C1309.9618 907.1243 1315.4917 909.3743 1318.7717 909.3743C1323.6417 909.3743 1327.9516 907.4443 1331.6116 903.6643C1336.3916 898.2744 1339.7616 890.8444 1341.7316 881.2645C1345.1049 881.2645 1348.4782 881.2645 1351.8515 881.2545ZM1492.9606 870.8746C1492.9606 991.8204 1492.9606 1112.7663 1492.9606 1233.7122C1492.9606 1250.7221 1494.0906 1262.012 1496.3306 1267.512C1498.6705 1273.012 1502.1405 1277.2919 1506.9205 1280.1319C1511.6105 1282.9819 1520.5104 1284.4119 1533.4403 1284.4119C1533.4403 1288.0785 1533.4403 1291.7452 1533.4403 1295.4118C1492.4006 1295.4118 1451.3608 1295.4118 1410.3211 1295.4118C1410.3211 1291.7452 1410.3211 1288.0785 1410.3211 1284.4119C1421.841 1284.4119 1429.711 1283.0819 1433.931 1280.5419C1438.1509 1278.0019 1441.4309 1273.722 1443.8609 1267.812C1446.2009 1261.902 1447.4209 1250.5021 1447.4209 1233.7022C1447.4209 1150.8327 1447.4209 1067.9633 1447.4209 985.0938C1447.4209 954.554 1446.7609 935.8141 1445.5409 928.8942C1444.2309 921.8742 1442.1709 917.0843 1439.3609 914.5443C1436.5509 912.0043 1432.901 910.6743 1428.491 910.6743C1423.801 910.6743 1417.8111 912.3043 1410.5011 915.4643C1408.9411 911.801 1407.3811 908.1376 1405.8211 904.4743C1430.7443 893.2744 1455.6675 882.0745 1480.5907 870.8746C1484.714 870.8746 1488.8373 870.8746 1492.9606 870.8746ZM1626.5797 870.8746C1634.1697 870.8746 1640.7296 873.8245 1646.1596 879.6245C1651.4996 885.5245 1654.2195 892.6544 1654.2195 900.9044C1654.2195 909.2543 1651.4996 916.4743 1646.1596 922.3842C1640.7296 928.3942 1634.1697 931.3442 1626.5797 931.3442C1618.8898 931.3442 1612.2498 928.3942 1606.8098 922.3842C1601.2799 916.4743 1598.5599 909.2543 1598.5599 900.9044C1598.5599 892.6544 1601.2799 885.5245 1606.6098 879.6245C1612.0498 873.8245 1618.6998 870.8746 1626.5797 870.8746ZM1649.1596 1013.8136C1649.1596 1087.1132 1649.1596 1160.4127 1649.1596 1233.7122C1649.1596 1250.7221 1650.2896 1262.012 1652.6295 1267.622C1654.8695 1273.322 1658.2495 1277.4919 1662.7495 1280.2519C1667.2495 1282.9919 1675.4894 1284.4219 1687.3893 1284.4219C1687.3893 1288.0885 1687.3893 1291.7552 1687.3893 1295.4218C1646.7229 1295.4218 1606.0565 1295.4218 1565.3901 1295.4218C1565.3901 1291.7552 1565.3901 1288.0885 1565.3901 1284.4219C1577.57 1284.4219 1585.82 1283.0919 1589.94 1280.5519C1594.1599 1278.0119 1597.4399 1273.732 1599.9699 1267.822C1602.3999 1261.912 1603.6199 1250.5121 1603.6199 1233.7122C1603.6199 1198.4891 1603.6199 1163.266 1603.6199 1128.0429C1603.6199 1098.6231 1602.7699 1079.5832 1601.1799 1070.8333C1599.8699 1064.5233 1597.8999 1060.1433 1595.0899 1057.6933C1592.3699 1055.1534 1588.63 1053.9334 1583.94 1053.9334C1578.79 1053.9334 1572.6001 1055.4534 1565.3001 1058.4133C1564.0168 1054.75 1562.7335 1051.0867 1561.4501 1047.4234C1586.6566 1036.2268 1611.8631 1025.0302 1637.0696 1013.8336C1641.0963 1013.8336 1645.1229 1013.8336 1649.1496 1013.8336C1649.1529 1013.827 1649.1562 1013.8203 1649.1596 1013.8136ZM1791.8686 1071.1333C1821.2885 1032.9535 1849.3083 1013.8136 1875.9181 1013.8136C1889.598 1013.8136 1901.4079 1017.5736 1911.2479 1025.0136C1921.1778 1032.4435 1928.9578 1044.7634 1934.8577 1061.8633C1938.8877 1073.8732 1940.8577 1092.2031 1940.8577 1116.843C1940.8577 1155.7994 1940.8577 1194.7558 1940.8577 1233.7122C1940.8577 1250.9221 1942.1677 1262.522 1944.6977 1268.732C1946.6676 1273.622 1949.9476 1277.4919 1954.3476 1280.2419C1958.8476 1282.9819 1967.0875 1284.4119 1979.0874 1284.4119C1979.0874 1288.0785 1979.0874 1291.7452 1979.0874 1295.4118C1937.671 1295.4118 1896.2546 1295.4118 1854.8382 1295.4118C1854.8382 1291.7452 1854.8382 1288.0785 1854.8382 1284.4119C1856.5882 1284.4119 1858.3382 1284.4119 1860.0882 1284.4119C1871.7081 1284.4119 1879.8581 1282.4719 1884.548 1278.6119C1889.138 1274.7419 1892.418 1269.032 1894.198 1261.602C1894.948 1258.652 1895.328 1249.2821 1895.328 1233.7022C1895.328 1196.2025 1895.328 1158.7027 1895.328 1121.2029C1895.328 1096.2631 1892.328 1078.0432 1886.428 1066.7333C1880.5181 1055.4334 1870.5881 1049.8434 1856.5382 1049.8434C1834.8984 1049.8434 1813.3485 1062.7733 1791.8886 1088.7331C1791.8886 1137.0562 1791.8886 1185.3792 1791.8886 1233.7022C1791.8886 1252.1321 1792.9186 1263.432 1794.8886 1267.812C1797.5186 1273.512 1801.0786 1277.6919 1805.5686 1280.4319C1810.0685 1283.0819 1819.1585 1284.4019 1832.9284 1284.4019C1832.9284 1288.0685 1832.9284 1291.7352 1832.9284 1295.4018C1791.3253 1295.4018 1749.7223 1295.4018 1708.1192 1295.4018C1708.1192 1291.7352 1708.1192 1288.0685 1708.1192 1284.4019C1709.9625 1284.4019 1711.8058 1284.4019 1713.6492 1284.4019C1726.4791 1284.4019 1735.109 1280.9319 1739.599 1273.912C1744.099 1266.892 1746.3389 1253.4521 1746.3389 1233.7022C1746.3389 1199.9024 1746.3389 1166.1026 1746.3389 1132.3029C1746.3389 1099.5131 1745.6889 1079.5632 1744.279 1072.4433C1742.869 1065.2133 1740.809 1060.3233 1737.999 1057.7833C1735.189 1055.2434 1731.349 1053.9134 1726.6591 1053.9134C1721.4991 1053.9134 1715.4091 1055.4334 1708.2892 1058.3933C1706.9159 1054.73 1705.5425 1051.0667 1704.1692 1047.4034C1729.4691 1036.2068 1754.7689 1025.0102 1780.0687 1013.8136C1784.0054 1013.8136 1787.942 1013.8136 1791.8786 1013.8136C1791.8786 1032.9202 1791.8786 1052.0267 1791.8686 1071.1333ZM2063.8769 870.8746C2071.4668 870.8746 2078.0268 873.8245 2083.4568 879.6245C2088.7967 885.5245 2091.5167 892.6544 2091.5167 900.9044C2091.5167 909.2543 2088.7967 916.4743 2083.4568 922.3842C2078.0268 928.3942 2071.4668 931.3442 2063.8769 931.3442C2056.1869 931.3442 2049.547 928.3942 2044.107 922.3842C2038.5771 916.4743 2035.8671 909.2543 2035.8671 900.9044C2035.8671 892.6544 2038.5771 885.5245 2043.917 879.6245C2049.357 873.8245 2056.0069 870.8746 2063.8769 870.8746ZM2086.4567 1013.8136C2086.4567 1087.1132 2086.4567 1160.4127 2086.4567 1233.7122C2086.4567 1250.7221 2087.5867 1262.012 2089.9267 1267.622C2092.1767 1273.322 2095.5467 1277.4919 2100.0467 1280.2519C2104.5466 1282.9919 2112.7866 1284.4219 2124.6865 1284.4219C2124.6865 1288.0885 2124.6865 1291.7552 2124.6865 1295.4218C2084.0201 1295.4218 2043.3537 1295.4218 2002.6873 1295.4218C2002.6873 1291.7552 2002.6873 1288.0885 2002.6873 1284.4219C2014.8672 1284.4219 2023.1172 1283.0919 2027.2371 1280.5519C2031.4571 1278.0119 2034.7371 1273.732 2037.2671 1267.822C2039.697 1261.912 2040.917 1250.5121 2040.917 1233.7122C2040.917 1198.4891 2040.917 1163.266 2040.917 1128.0429C2040.917 1098.6231 2040.077 1079.5832 2038.4771 1070.8333C2037.1671 1064.5233 2035.1971 1060.1433 2032.3871 1057.6933C2029.6671 1055.1534 2025.9271 1053.9334 2021.2372 1053.9334C2016.0872 1053.9334 2009.8972 1055.4534 2002.5973 1058.4133C2001.3173 1054.75 2000.0373 1051.0867 1998.7573 1047.4234C2023.9638 1036.2268 2049.1703 1025.0302 2074.3768 1013.8336C2078.4035 1013.8336 2082.4301 1013.8336 2086.4567 1013.8336C2086.4567 1013.827 2086.4567 1013.8203 2086.4567 1013.8136ZM2369.7149 1191.4625C2362.965 1227.6023 2349.665 1255.1921 2329.8952 1274.4419C2310.1253 1293.6818 2288.2954 1303.3518 2264.3056 1303.3518C2235.7258 1303.3518 2210.8059 1290.3218 2189.6261 1264.262C2168.3562 1238.3022 2157.7663 1203.0724 2157.7663 1158.6927C2157.7663 1115.833 2169.4762 1080.9132 2192.9961 1054.0334C2216.5159 1027.2535 2244.7157 1013.8236 2277.6055 1013.8236C2302.3453 1013.8236 2322.5852 1020.9536 2338.5151 1035.2035C2354.445 1049.3534 2362.405 1064.1233 2362.405 1079.4932C2362.405 1087.0232 2360.155 1093.1331 2355.655 1097.8131C2351.155 1102.4931 2344.9751 1104.843 2336.9151 1104.843C2326.1352 1104.843 2318.0752 1101.0731 2312.7453 1093.4431C2309.4653 1089.2731 2307.3153 1081.2232 2306.2853 1069.4133C2305.2453 1057.6033 2301.5954 1048.5434 2295.2254 1042.3334C2288.7654 1036.3235 2279.9555 1033.3635 2268.6156 1033.3635C2250.2557 1033.3635 2235.5358 1040.6935 2224.3859 1055.4534C2209.5759 1075.0032 2202.176 1100.7631 2202.176 1132.9329C2202.176 1165.6127 2209.5759 1194.4225 2224.2859 1219.4623C2239.0858 1244.4121 2258.9556 1256.9321 2284.0655 1256.9321C2302.0553 1256.9321 2318.1752 1250.4121 2332.4152 1237.2822C2342.5351 1228.2222 2352.275 1211.5224 2361.835 1187.3025C2364.4583 1188.6925 2367.0816 1190.0825 2369.7049 1191.4725C2369.7082 1191.4692 2369.7116 1191.4658 2369.7149 1191.4625Z"/><path fill="rgb(255, 255, 255)" stroke="none" fill-opacity="1" stroke-width="1" stroke-opacity="1" clip-rule="evenodd" text-rendering="geometricprecision" class="fil0" id="tSvg8f4368f06d" title="Path 2" d="M464.1272 512.3269C498.0637 579.3531 532.0001 646.3793 565.9366 713.4056C643.5127 481.8704 721.0889 250.3352 798.6651 18.8001C743.5188 18.8001 688.3724 18.8001 633.2261 18.8001C576.8565 183.309 520.4969 347.8279 464.1372 512.3369C464.1339 512.3335 464.1306 512.3302 464.1272 512.3269ZM513.5369 865.4346C526.4268 828.7315 539.3167 792.0284 552.2067 755.3253C444.4974 542.9633 336.7881 330.6014 229.0787 118.2394C215.8788 91.0696 217.4988 74.0497 229.0787 63.8398C186.4024 63.8398 143.726 63.8398 101.0496 63.8398C105.6495 67.5497 108.7795 72.4897 113.3795 81.0997C246.7686 342.548 380.1578 603.9963 513.5369 865.4346ZM145.8793 205.0089C131.2927 177.0757 116.7061 149.1426 102.1196 121.2094C93.0496 103.8195 85.5897 83.6796 68.4298 74.6897C51.5599 65.8498 29.81 65.7498 1.0002 63.1698C1.0002 55.7798 1.0002 48.3899 1.0002 40.9999C113.3662 40.9999 225.7321 40.9999 338.098 40.9999C338.098 48.3899 338.098 55.7798 338.098 63.1698C292.0083 62.6498 271.9185 60.6198 258.8786 72.3097C245.9786 83.8896 260.7885 119.7694 269.4585 135.9593C285.2251 165.3591 300.9916 194.7589 316.7582 224.1587C357.0846 302.8682 397.411 381.5777 437.7374 460.2872C482.9638 328.1747 528.1901 196.0623 573.4165 63.9498C577.9565 50.6699 583.2265 38.6799 576.1165 32.3C563.0766 20.6101 542.9967 22.64 496.897 23.16C496.897 15.7734 496.897 8.3868 496.897 1.0002C631.2861 1.0002 765.6753 1.0002 900.0644 1.0002C900.0644 8.3868 900.0644 15.7734 900.0644 23.16C836.5548 28.87 840.8448 20.1601 819.5449 77.1397C778.6752 186.489 679.9558 487.997 591.6964 760.7953C636.9628 849.148 682.2292 937.5008 727.4955 1025.8536C828.3749 739.7021 929.2542 453.5506 1030.1336 167.3991C1038.4135 149.5592 1060.7134 92.7396 1047.3935 79.5497C1028.1936 60.5298 997.7738 64.0198 956.814 61.8198C956.814 55.3365 956.814 48.8532 956.814 42.3699C1042.6302 42.3699 1128.4463 42.3699 1214.2624 42.3699C1214.2624 48.8532 1214.2624 55.3365 1214.2624 61.8198C1128.3329 66.7298 1110.2031 79.6497 1101.6731 102.0895C1086.3165 142.4993 1070.96 182.909 1055.6034 223.3187C952.0274 512.5802 848.4514 801.8417 744.8754 1091.1031C694.2524 1091.1031 643.6294 1091.1031 593.0064 1091.1031C571.0699 1047.6367 549.1333 1004.1704 527.1968 960.704C479.1071 1110.103 441.5174 1227.4623 430.1774 1261.882C549.3033 1261.882 668.4292 1261.882 787.5551 1261.882C831.9749 1261.882 863.0446 1258.4121 880.9045 1251.3221C898.7644 1244.2221 915.2143 1223.8323 929.9842 1205.8124C944.6941 1187.8725 959.454 1159.4427 974.2639 1120.6329C978.9106 1121.7396 983.5572 1122.8463 988.2038 1123.9529C971.6539 1180.5792 955.1041 1237.2055 938.5542 1293.8318C676.4925 1293.8318 414.4309 1293.8318 152.3692 1293.8318C225.5188 1080.1565 298.6683 866.4813 371.8178 652.806C296.4983 503.5469 221.1788 354.2879 145.8793 205.0089ZM499.757 904.3043C466.0939 837.7848 432.4308 771.2652 398.7677 704.7456C335.9114 890.5244 273.0551 1076.3032 210.1989 1262.082C267.1952 1262.082 324.1915 1262.082 381.1878 1262.082C420.7108 1142.8228 460.2339 1023.5636 499.757 904.3043ZM576.7765 803.685C565.0966 841.5981 553.4167 879.5112 541.7367 917.4243C565.7199 965.4139 589.7031 1013.4036 613.6863 1061.3933C645.6194 1061.5533 677.5525 1061.7133 709.4856 1061.8733C665.2459 975.8072 621.0062 889.7411 576.7765 803.685Z"/></svg>

<svg xmlns="http://www.w3.org/2000/svg" viewBox="0 0 2370.71 1305.58" data-guides="{&quot;vertical&quot;:[],&quot;horizontal&quot;:[]}"><path fill="#FFF" clip-rule="evenodd" text-rendering="geometricprecision" class="fil0" d="m1351.851 881.255 8.43 137.449h-8.43c-11.34-41.13-27.46-70.86-48.45-88.88-20.99-18.12-46.099-27.18-75.519-27.18-24.55 0-46.85 6.82-66.71 20.46-19.86 13.65-35.509 35.33-46.949 65.27-11.34 29.82-17.05 66.99-17.05 111.37 0 36.649 5.34 68.419 16.12 95.289 10.78 26.88 26.99 47.44 48.54 61.8 21.65 14.359 46.29 21.489 73.92 21.489 24.09 0 45.359-5.61 63.719-16.8 18.46-11.2 38.7-33.5 60.72-66.89l8.53 6.11c-18.65 35.94-40.39 62.2-65.22 78.9-24.83 16.59-54.34 24.94-88.45 24.94-61.56 0-109.259-24.84-142.989-74.62-25.21-37.06-37.86-80.63-37.86-130.719 0-40.41 8.34-77.58 24.93-111.38 16.58-33.899 39.45-60.059 68.49-78.699 29.14-18.62 60.91-27.9 95.39-27.9 26.8 0 53.219 7.13 79.359 21.49 7.59 4.37 13.12 6.62 16.4 6.62 4.87 0 9.18-1.93 12.84-5.71 4.78-5.39 8.15-12.82 10.12-22.4 3.373 0 6.746 0 10.12-.01Zm141.11-10.38v362.837c0 17.01 1.13 28.3 3.37 33.8 2.34 5.5 5.81 9.78 10.59 12.62 4.69 2.85 13.59 4.28 26.52 4.28v11h-123.12v-11c11.52 0 19.39-1.33 23.61-3.87 4.22-2.54 7.5-6.82 9.93-12.73 2.34-5.91 3.56-17.31 3.56-34.11V985.094c0-30.54-.66-49.28-1.88-56.2-1.31-7.02-3.37-11.81-6.18-14.35-2.81-2.54-6.46-3.87-10.87-3.87-4.69 0-10.68 1.63-17.99 4.79l-4.68-10.99 74.77-33.6h12.37Zm133.619 0c7.59 0 14.15 2.95 19.58 8.75 5.34 5.9 8.06 13.03 8.06 21.28 0 8.35-2.72 15.57-8.06 21.48-5.43 6.01-11.99 8.96-19.58 8.96-7.69 0-14.33-2.95-19.77-8.96-5.53-5.91-8.25-13.13-8.25-21.48 0-8.25 2.72-15.38 8.05-21.28 5.44-5.8 12.09-8.75 19.97-8.75Zm22.58 142.939v219.898c0 17.01 1.13 28.3 3.47 33.91 2.24 5.7 5.62 9.87 10.12 12.63 4.5 2.74 12.74 4.17 24.64 4.17v11h-122v-11c12.18 0 20.43-1.33 24.55-3.87 4.22-2.54 7.5-6.82 10.03-12.73 2.43-5.91 3.65-17.31 3.65-34.11v-105.67c0-29.419-.85-48.459-2.44-57.209-1.31-6.31-3.28-10.69-6.09-13.14-2.72-2.54-6.46-3.76-11.15-3.76-5.15 0-11.34 1.52-18.64 4.48l-3.85-10.99 75.62-33.59h12.08l.01-.02Zm142.709 57.32c29.42-38.18 57.44-57.32 84.05-57.32 13.679 0 25.489 3.76 35.329 11.2 9.93 7.43 17.71 19.75 23.61 36.85 4.03 12.01 6 30.34 6 54.979v116.87c0 17.21 1.31 28.809 3.84 35.019 1.97 4.89 5.25 8.76 9.65 11.51 4.5 2.74 12.74 4.17 24.74 4.17v11h-124.25v-11h5.25c11.62 0 19.77-1.94 24.46-5.8 4.59-3.87 7.87-9.58 9.65-17.01.75-2.95 1.13-12.32 1.13-27.9v-112.5c0-24.939-3-43.159-8.9-54.469-5.91-11.3-15.84-16.89-29.89-16.89-21.64 0-43.19 12.93-64.65 38.89v144.97c0 18.43 1.03 29.729 3 34.109 2.63 5.7 6.19 9.88 10.68 12.62 4.5 2.65 13.59 3.97 27.36 3.97v11H1708.12v-11h5.53c12.83 0 21.46-3.47 25.95-10.49 4.5-7.02 6.74-20.46 6.74-40.21v-101.4c0-32.789-.65-52.739-2.06-59.859-1.41-7.23-3.47-12.12-6.28-14.66-2.81-2.54-6.65-3.87-11.34-3.87-5.16 0-11.25 1.52-18.37 4.48l-4.12-10.99 75.9-33.59h11.81c0 19.107 0 38.214-.01 57.32Zm272.008-200.26c7.59 0 14.15 2.95 19.58 8.75 5.34 5.9 8.06 13.03 8.06 21.28 0 8.35-2.72 15.57-8.06 21.48-5.43 6.01-11.99 8.96-19.58 8.96-7.69 0-14.33-2.95-19.77-8.96-5.53-5.91-8.24-13.13-8.24-21.48 0-8.25 2.71-15.38 8.05-21.28 5.44-5.8 12.09-8.75 19.96-8.75Zm22.58 142.94v219.898c0 17.01 1.13 28.3 3.47 33.91 2.25 5.7 5.62 9.87 10.12 12.63 4.5 2.74 12.74 4.17 24.64 4.17v11h-122v-11c12.18 0 20.43-1.33 24.55-3.87 4.22-2.54 7.5-6.82 10.03-12.73 2.43-5.91 3.65-17.31 3.65-34.11v-105.67c0-29.419-.84-48.459-2.44-57.209-1.31-6.31-3.28-10.69-6.09-13.14-2.72-2.54-6.46-3.76-11.15-3.76-5.15 0-11.34 1.52-18.64 4.48l-3.84-10.99 75.62-33.59h12.08v-.02Zm283.258 177.649c-6.75 36.14-20.05 63.73-39.82 82.979-19.77 19.24-41.6 28.91-65.59 28.91-28.58 0-53.5-13.03-74.679-39.09-21.27-25.96-31.86-61.19-31.86-105.57 0-42.859 11.71-77.779 35.23-104.659 23.52-26.78 51.72-40.21 84.61-40.21 24.74 0 44.98 7.13 60.91 21.38 15.929 14.15 23.889 28.92 23.889 44.29 0 7.53-2.25 13.64-6.75 18.32s-10.68 7.03-18.74 7.03c-10.78 0-18.84-3.77-24.17-11.4-3.28-4.17-5.43-12.22-6.46-24.03-1.04-11.81-4.69-20.87-11.06-27.08-6.46-6.01-15.27-8.97-26.61-8.97-18.36 0-33.08 7.33-44.23 22.09-14.81 19.55-22.209 45.31-22.209 77.48 0 32.68 7.4 61.49 22.11 86.53 14.8 24.95 34.67 37.47 59.78 37.47 17.99 0 34.11-6.52 48.35-19.65 10.12-9.06 19.859-25.76 29.419-49.98l7.87 4.17.01-.01ZM464.127 512.327l101.81 201.079L798.665 18.8H633.226c-56.37 164.509-112.73 329.028-169.089 493.537a.471.471 0 0 0-.01-.01Zm49.41 353.108 38.67-110.11L229.079 118.24c-13.2-27.17-11.58-44.19 0-54.4h-128.03c4.6 3.71 7.73 8.65 12.33 17.26 133.39 261.449 266.779 522.897 400.158 784.336ZM145.879 205.009l-43.76-83.8c-9.07-17.39-16.53-37.53-33.69-46.52C51.56 65.85 29.81 65.75 1 63.17V41h337.098v22.17c-46.09-.52-66.18-2.55-79.22 9.14-12.9 11.58 1.91 47.46 10.58 63.65l47.3 88.2 120.98 236.128L573.416 63.95c4.54-13.28 9.81-25.27 2.7-31.65-13.04-11.69-33.12-9.66-79.22-9.14V1h403.167v22.16c-63.51 5.71-59.22-3-80.52 53.98-40.869 109.349-139.588 410.857-227.848 683.655l135.8 265.059 302.638-858.455c8.28-17.84 30.58-74.66 17.26-87.85-19.2-19.02-49.62-15.53-90.58-17.73V42.37h257.448v19.45c-85.93 4.91-104.059 17.83-112.589 40.27l-46.07 121.23-310.728 867.784H593.006l-65.81-130.399c-48.089 149.399-85.679 266.758-97.019 301.178h357.378c44.42 0 75.49-3.47 93.35-10.56 17.86-7.1 34.31-27.49 49.08-45.51 14.71-17.94 29.469-46.37 44.279-85.18 4.647 1.108 9.293 2.214 13.94 3.32l-49.65 169.88H152.37l219.449-641.026c-75.32-149.26-150.64-298.518-225.939-447.797Zm353.878 699.295-100.99-199.558L210.2 1262.082h170.989l118.569-357.778Zm77.02-100.619-35.04 113.74 71.95 143.968 95.799.48c-44.24-86.066-88.48-172.132-132.71-258.188Z"/></svg>
